X: 10688
T: Down The Meadows
R: reel
M: 4/4
K: Ddorian
|:c4 E4|Addc d2 ed|c4 EDEG|A2 GE ED D2:|
cdeg a2 ge|a2 ge dcAB|cdeg a2 ge|g2 ed e2 c2|
cdeg a2 ge|a2 ge dcAB|cdef geaf|g2 ed B2 A2||

